X: 19015
T: International Schottische, The
R: barndance
M: 4/4
K: Gmajor
|:B>c|d2 b2 c2 a2|B2 g2 g>dB>G|A2 f>e d>cB>A|G>BA>c B>dc>e|
d2 b2 c2 a2|B2 g2 g>dB>G|A2 f>e d>cB>A|G2 B2 G2:|
|:A>G|F>GA>B c>de>f|g2 B2 B2- B>g|f2 (3AAA A2- A>e|e2 d2 B2 G2|
F>GA>B c2 (3def|g>B (3BBB B2- B>g|f2- f>e d>cB>A|G2 (3GGG G2:|
|:(3ABc|d2 B>d g2 f2|f2 A>c e4|d2 F>A e2 d2|(3ded G>A B2 (3ABc|
d2 (3Bcd g2 f2|f2 A>c e4|d2 (3FGA e>d (3cBA|G2 B2 G2:|

